Sources/FrostedUI/Resources/Icons.xcassets/usd32.imageset/usd-32.svg

<svg
  width="32"
  height="32"
  viewBox="0 0 32 32"
  fill="none"
  xmlns="http://www.w3.org/2000/svg"
  data-fui-icon="true"
>
  <path
    d="M11.75 22.25H18.125C19.8509 22.25 21.25 20.8509 21.25 19.125V19.125C21.25 17.3991 19.8509 16 18.125 16H13.875C12.1491 16 10.75 14.6009 10.75 12.875V12.875C10.75 11.1491 12.1491 9.75 13.875 9.75H20.25"
    stroke="currentColor"
    stroke-width="1.5"
    stroke-linecap="round"
    stroke-linejoin="round"
  />
  <circle
    cx="16"
    cy="16"
    r="14.25"
    stroke="currentColor"
    stroke-width="1.5"
    stroke-linecap="round"
    stroke-linejoin="round"
  />
  <path
    d="M16 6.75V25.25"
    stroke="currentColor"
    stroke-width="1.5"
    stroke-linecap="round"
    stroke-linejoin="round"
  />
</svg>

<svg xmlns="http://www.w3.org/2000/svg" width="32" height="32" fill="none" data-fui-icon="true" viewBox="0 0 32 32"><path stroke="currentColor" stroke-linecap="round" stroke-linejoin="round" stroke-width="1.5" d="M11.75 22.25h6.375c1.726 0 3.125-1.4 3.125-3.125v0c0-1.726-1.4-3.125-3.125-3.125h-4.25a3.125 3.125 0 0 1-3.125-3.125v0c0-1.726 1.4-3.125 3.125-3.125h6.375"/><circle cx="16" cy="16" r="14.25" stroke="currentColor" stroke-linecap="round" stroke-linejoin="round" stroke-width="1.5"/><path stroke="currentColor" stroke-linecap="round" stroke-linejoin="round" stroke-width="1.5" d="M16 6.75v18.5"/></svg>
